X:052
T:Lovers' Quarrels  WES.052
M:6/8
L:1/8
R:Country Dance
Q:3/8=120
B:T.Westrop’s 120 Country Dances, 1860’s
Z:VMP-R.Greig 2010
K:D
A|A2FF2d|(fe).d (dc).B|A2F (FE).D|E3-E2 E|F2GA2A|(Ac).e (fe).d|c2AB2^G|A3-A2 :|
|:!f!B|B2FF2d|d2cc2B|A2AA2^G|A3-A2 A|B2cd2A|B2cd2d|c2AG2E|D3-D2 :|

